svgs/thin/plus-minus.svg

<svg xmlns="http://www.w3.org/2000/svg" viewBox="0 0 384 512"><!--! Font Awesome Pro 6.6.0 by @fontawesome - https://fontawesome.com License - https://fontawesome.com/license (Commercial License) Copyright 2024 Fonticons, Inc. --><path d="M184 200l0 160c0 4.4 3.6 8 8 8s8-3.6 8-8l0-160 160 0c4.4 0 8-3.6 8-8s-3.6-8-8-8l-160 0 0-160c0-4.4-3.6-8-8-8s-8 3.6-8 8l0 160L24 184c-4.4 0-8 3.6-8 8s3.6 8 8 8l160 0zM8 472c0 4.4 3.6 8 8 8l352 0c4.4 0 8-3.6 8-8s-3.6-8-8-8L16 464c-4.4 0-8 3.6-8 8z"/></svg>

<svg xmlns="http://www.w3.org/2000/svg" viewBox="0 0 384 512"><!--! Font Awesome Pro 6.5.2 by @fontawesome - https://fontawesome.com License - https://fontawesome.com/license (Commercial License) Copyright 2024 Fonticons, Inc. --><path d="M184 200V360c0 4.4 3.6 8 8 8s8-3.6 8-8V200H360c4.4 0 8-3.6 8-8s-3.6-8-8-8H200V24c0-4.4-3.6-8-8-8s-8 3.6-8 8V184H24c-4.4 0-8 3.6-8 8s3.6 8 8 8H184zM8 472c0 4.4 3.6 8 8 8H368c4.4 0 8-3.6 8-8s-3.6-8-8-8H16c-4.4 0-8 3.6-8 8z"/></svg>
